X:27
T:Buffalo - Benney
%%VWML:SBG-1-2-361-0
F:http://www.vwml.org/record/SBG/1/2/361
Z:Original Sibelius transcriptions by M. & S. Graebe
M:4/4
I:linebreak $
K:Bb
V:1 treble nm="P1"
V:1
 F | F B B B | B d2 B | A B c d | e3 e | d c B A | B2 F B | d d e c |$ B3 B | d c c c | B2 A B | %11
 c B A G | F3 F | F B B B | B2 A B | c c c d |$ e3 d/e/ | f f f f | (g e) d c | c B B A | %20
 (B c d) B |$ c F F F | F2 d e | f2 f f | (g e) d c | c3/2 B/ B A | !fermata!B2 x2 | %27
T:Buffalo - Fone
F:http://www.vwml.org/record/SBG/1/2/361
Z:Original Sibelius transcriptions by M. & S. Graebe
M:4/4
I:linebreak $
K:Bb
V:1 treble nm="P1"
V:1
 G2 | cccc cdec | dGGG GFEG | e2 ee fedB | dccc c2 c2 |$ edef g2 cc | dcde defc | eedd c2 c2 | %8
 d3 BA GFEG |$ g2 gg agfe | dced c2 Bc | d2 GG G2 G2 | g2 gg afed | dced c4 | %14

